X:640
T:La Russe
C:Traditional English
S:Colin Hume's website,  colinhume.com  - chords can also be printed below the stave.
Q:1/2=120
M:4/4
L:1/4
K:G
P:A
|: B/A/ | "G"GB/B/ Bd/d/ | "G"dg gf/g/ | "C"ag ec | "D7"ed d/c/B/A/ |\
"G"GB/B/ Bd/d/ | "G"dg gf/g/ | "C"ed "D7"dF | "G"AG G :|
P:B
K:D
|: B | "D"Ad dB | "D"Aa af | "A7"gf ge | "D"f/g/a/g/ "A7"fd |\
"D"Ad dB | "D"Aa af | "A7"gf ge |1 "D"d3 :|2 "D"df/e/ "D7"d/=c/B/A/ |]

